!!!OTL: 508b. Schaefers Liebeslied.
!!!ODT: 1880
!!!ARE: Europa, Mitteleuropa, Deutschland, Ober - Lahnkreis; Dillkreis
!!!SCT: E0508C
!!!TXL: @@DE
!!!YEM: Copyright 1995, estate of Helmut Schaffrath.
**kern	**text
*ICvox	*
*M3/8	*
*k[b-e-]	*
*B-:	*
!LO:TX:a:t=Etwas langſam.	!
!LO:TX:a:t=Oberlahn- und Dillkreis, 1880.	!
{8f	Ein
=1	=1
8.b-	Schä-
16a	-fer
16b-L	trägt
16gJ	.
=2	=2
8f	Sor-
8d}	-gen
{8b-	bei
=3	=3
8cc	Tag
8dd	und
8cc	bei
=4	=4
4b-}	Nacht,
{16dd	ſei-
16dd	-ne
=5	=5
8.cc	Schäf-
16dd	-lein
16ee-L	ʒu
16ggJ	.
=6	=6
8ff	wei-
8dd}	-den
{16ff	iſt
16ff	er
=7	=7
8gg	all-
8ff	-ʒeit
8ee-	be-
=8	=8
4dd}	-dacht.
{16dd	ſei-
16dd	-ne
=9	=9
8.cc	Schäf-
16dd	-lein
16ee-L	ʒu
16ggJ	.
=10	=10
8ff	wei-
8dd}	-den
{16ff	iſt
16ff	er
=11	=11
8gg	all-
8ff	-ʒeit
8ee-	be-
=12	=12
4dd}	-dacht.
==	==
!!!AGN: Liebes - Lied
!!!ONB: ESAC (Essen Associative Code) Database: ERK1
!!!AMT: simple triple
!!!AIN: vox
!!!EED: Helmut Schaffrath
!!!EEV: 1.0
!!!GTL: Liebeslieder [Neuere (aus dem 18. bis 19. Jahrh.) - Liebeslust]
!!!URL-scan: https://rosdok.uni-rostock.de/mcrviewer/recordIdentifier/rosdok_ppn745177662/iview2/phys_0331.iview2?x=-128.77276441889285&y=2333.776740418747&scale=0.5870222003877487&rotation=0&layout=singlePageLayout
!!!ENC: Anna Maria Matuszewska
!!!EEV: 2024/10/12
*-	*-
